X: 21078
T: Just The Very Thing
R: jig
M: 6/8
K: Gmajor
|:~G2e dBG|AGE GED|~G2e dBG|~A3 BGF|
~G2e dBG|AGE GED|~G2B AGF|~G3 G2A:|
|:B~G2 d~G2|~e3 dBA|B~G2 dcB|~A3 AGA|
[1 B~G2 d~G2|~e3 dBA|~G2B AGF|~G3 G2A:|
[2 ~G2e dBG|AGE GED|~G2B AGF|~G3 G2||

